X: 102
T:McGlinchy's
M:C|
L:1/8
R:reel
Z:From Lunasa (In set with The Floating Crowbar)
Z:Gerry Strong,  28/9/1999
K:Am
|:GA{B}AG AedB|~A3 B ~G2 (3Bcd)|eBdB ~A2 Bd|eaag a3 b|c'abg ae ~e2|~g3 a
gedB|~A3 B G2 Bd|eBdB A2 z2:|
|:agba ge ~e2|aged (3Bcd) ed|BA ~A2 (3Bcd) ed|BA ~A2 ~G4|EA{B}AG AedB|~A
3 B
~G2 (3Bcd)|ea ~a2 gaba|gedB A2 z2:|
<end>
<start>
